packages/icons/raw/imported/ChatCommentRemove.svg

<svg width="32" height="32" viewBox="0 0 32 32" fill="none" xmlns="http://www.w3.org/2000/svg">
<path d="M7 10.5H6.5H7ZM7 23.5382H7.5H7ZM25 10.5H24.5H25ZM25 17.9815H25.5H25ZM21 6.50002L21 6.00002L21 6.50002ZM11 6.5L11 7L11 6.5ZM11.8462 21.9815V21.4815H11.6838L11.5524 21.5769L11.8462 21.9815ZM8.58752 24.3474L8.29376 23.9428H8.29376L8.58752 24.3474ZM21 21.9815V21.4815V21.9815ZM13 14C12.7239 14 12.5 14.2238 12.5 14.5C12.5 14.7761 12.7239 15 13 15V14ZM19 15C19.2762 15 19.5 14.7761 19.5 14.5C19.5 14.2238 19.2762 14 19 14V15ZM6.5 10.5L6.5 23.5382H7.5L7.5 10.5H6.5ZM24.5 10.5V17.9815H25.5V10.5H24.5ZM21 6.00002L11 6L11 7L21 7.00002L21 6.00002ZM11.5524 21.5769L8.29376 23.9428L8.88128 24.752L12.1399 22.3861L11.5524 21.5769ZM21 21.4815L11.8462 21.4815V22.4815L21 22.4815V21.4815ZM25.5 10.5C25.5 8.01474 23.4853 6.00003 21 6.00002L21 7.00002C22.933 7.00002 24.5 8.56703 24.5 10.5H25.5ZM7.5 10.5C7.5 8.567 9.06701 7 11 7L11 6C8.51472 5.99999 6.5 8.01472 6.5 10.5H7.5ZM6.5 23.5382C6.5 24.7635 7.8897 25.4719 8.88128 24.752L8.29376 23.9428C7.96323 24.1828 7.5 23.9466 7.5 23.5382H6.5ZM24.5 17.9815C24.5 19.9145 22.933 21.4815 21 21.4815V22.4815C23.4853 22.4815 25.5 20.4668 25.5 17.9815H24.5ZM13 15H19V14H13V15Z" fill="black"/>
</svg>

<svg width="32" height="32" fill="none" xmlns="http://www.w3.org/2000/svg"><path d="M7 10.5h-.5.5Zm0 13.038h.5H7ZM25 10.5h-.5.5Zm0 7.482h.5-.5ZM21 6.5V6v.5Zm-10 0V7v-.5Zm.846 15.482v-.5h-.162l-.132.095.294.404Zm-3.258 2.365-.294-.404.294.404ZM21 21.981v-.5.5ZM13 14a.5.5 0 1 0 0 1v-1Zm6 1a.5.5 0 1 0 0-1v1ZM6.5 10.5v13.038h1V10.5h-1Zm18 0v7.482h1V10.5h-1ZM21 6H11v1h10V6Zm-9.448 15.577-3.258 2.366.587.809 3.259-2.366-.588-.81ZM21 21.48h-9.154v1H21v-1ZM25.5 10.5A4.5 4.5 0 0 0 21 6v1a3.5 3.5 0 0 1 3.5 3.5h1Zm-18 0A3.5 3.5 0 0 1 11 7V6a4.5 4.5 0 0 0-4.5 4.5h1Zm-1 13.038c0 1.226 1.39 1.934 2.381 1.214l-.587-.81a.5.5 0 0 1-.794-.404h-1Zm18-5.556a3.5 3.5 0 0 1-3.5 3.5v1a4.5 4.5 0 0 0 4.5-4.5h-1ZM13 15h6v-1h-6v1Z" fill="#000"/></svg>
